icons/outline/border-bottom.svg

<!--
tags: [table, side, line]
category: Design
version: "1.0"
unicode: "ea3c"
-->
<svg
  xmlns="http://www.w3.org/2000/svg"
  width="24"
  height="24"
  viewBox="0 0 24 24"
  fill="none"
  stroke="currentColor"
  stroke-width="2"
  stroke-linecap="round"
  stroke-linejoin="round"
>
  <path d="M20 20l-16 0m0 -16l0 .01m4 -.01l0 .01m4 -.01l0 .01m4 -.01l0 .01m4 -.01l0 .01m-16 3.99l0 .01m8 -.01l0 .01m8 -.01l0 .01m-16 3.99l0 .01m4 -.01l0 .01m4 -.01l0 .01m4 -.01l0 .01m4 -.01l0 .01m-16 3.99l0 .01m8 -.01l0 .01m8 -.01l0 .01" />
</svg>

<!--
tags: [table, side, line]
category: Design
version: "1.0"
unicode: "ea3c"
-->
<svg
  xmlns="http://www.w3.org/2000/svg"
  width="24"
  height="24"
  viewBox="0 0 24 24"
  fill="none"
  stroke="currentColor"
  stroke-width="2"
  stroke-linecap="round"
  stroke-linejoin="round"
>
    <path d="M20 20l-16 0M4 4l0 .01M8 4l0 .01M12 4l0 .01M16 4l0 .01M20 4l0 .01M4 8l0 .01M12 8l0 .01M20 8l0 .01M4 12l0 .01M8 12l0 .01M12 12l0 .01M16 12l0 .01M20 12l0 .01M4 16l0 .01M12 16l0 .01M20 16l0 .01" />
</svg>
